22x22/apps/conky-manager.svg

<svg xmlns="http://www.w3.org/2000/svg" width="22" height="22" version="1">
 <rect style="opacity:0.2" width="3" height="14" x="10" y="4.5" rx=".5" ry=".5"/>
 <rect style="opacity:0.2" width="3" height="14" x="18" y="4.5" rx=".5" ry=".5"/>
 <rect style="fill:#c2352a" width="3" height="14" x="18" y="4" rx=".5" ry=".5"/>
 <rect style="fill:#c2352a" width="3" height="14" x="10" y="4" rx=".5" ry=".5"/>
 <rect style="fill:#c2352a" width="3" height="14" x="1" y="4" rx=".5" ry=".5"/>
 <path style="opacity:0.2" d="M 1.5,4.5 C 1.223,4.5 1,4.723 1,5 l 0,2 c 0,0.277 0.223,0.5 0.5,0.5 l 6,0 C 7.777,7.5 8,7.277 8,7 L 8,5 C 8,4.723 7.777,4.5 7.5,4.5 l -6,0 z m 9.215821,0 a 0.71620575,0.589535 0 0 0 -0.620118,0.883789 l 2.392578,3.4101565 2.392579,3.4111325 a 0.71620575,0.589535 0 0 0 0.585937,0.293946 0.71620575,0.589535 0 0 0 0.65332,-0.293946 L 18.512695,8.7939455 20.904297,5.383789 A 0.71620575,0.589535 0 0 0 20.284179,4.5 L 15.5,4.5 10.715821,4.5 Z M 1.5,15.5 C 1.223,15.5 1,15.723 1,16 l 0,2 c 0,0.277 0.223,0.5 0.5,0.5 l 6,0 C 7.777,18.5 8,18.277 8,18 L 8,16 C 8,15.723 7.777,15.5 7.5,15.5 l -6,0 z"/>
 <rect style="fill:#d8564d" width="3" height="7" x="4" y="-8" rx=".5" ry=".5" transform="matrix(0,1,-1,0,0,0)"/>
 <rect style="fill:#d8564d" width="3" height="7" x="15" y="-8" rx=".5" ry=".5" transform="matrix(0,1,-1,0,0,0)"/>
 <path style="fill:#d8564d" d="m 10.715982,4 a 0.71620575,0.589535 0 0 0 -0.62009,0.8842145 l 2.392708,3.410211 2.391775,3.4102105 a 0.71620575,0.589535 0 0 0 0.586523,0.294739 0.71620575,0.589535 0 0 0 0.653658,-0.294739 l 2.391776,-3.4102105 2.391776,-3.410211 A 0.71620575,0.589535 0 0 0 20.284018,4 l -4.783552,0 -4.784484,0 z"/>
 <path style="opacity:0.2;fill:#f4f4f7" d="M 1.5,4 C 1.223,4 1,4.223 1,4.5 L 1,5 C 1,4.723 1.223,4.5 1.5,4.5 l 6,0 C 7.777,4.5 8,4.723 8,5 L 8,4.5 C 8,4.223 7.777,4 7.5,4 l -6,0 z m 9.215821,0 A 0.71620575,0.589535 0 0 0 10.06836,4.839844 0.71620575,0.589535 0 0 1 10.715821,4.5 l 4.784179,0 4.784179,0 A 0.71620575,0.589535 0 0 1 20.93164,4.839844 0.71620575,0.589535 0 0 0 20.284179,4 L 15.5,4 10.715821,4 Z M 1.5,15 C 1.223,15 1,15.223 1,15.5 L 1,16 c 0,-0.277 0.223,-0.5 0.5,-0.5 l 6,0 C 7.777,15.5 8,15.723 8,16 L 8,15.5 C 8,15.223 7.777,15 7.5,15 l -6,0 z"/>
</svg>

<svg xmlns="http://www.w3.org/2000/svg" width="22" height="22" version="1"><rect style="opacity:.2" width="3" height="14" x="10" y="4.5" rx=".5" ry=".5"/><rect style="opacity:.2" width="3" height="14" x="18" y="4.5" rx=".5" ry=".5"/><rect style="fill:#c2352a" width="3" height="14" x="18" y="4" rx=".5" ry=".5"/><rect style="fill:#c2352a" width="3" height="14" x="10" y="4" rx=".5" ry=".5"/><rect style="fill:#c2352a" width="3" height="14" x="1" y="4" rx=".5" ry=".5"/><path style="opacity:.2" d="M1.5 4.5c-.277 0-.5.223-.5.5v2c0 .277.223.5.5.5h6c.277 0 .5-.223.5-.5V5c0-.277-.223-.5-.5-.5h-6zm9.216 0a.716.59 0 0 0-.62.884l2.392 3.41 2.393 3.411a.716.59 0 0 0 .586.294.716.59 0 0 0 .653-.294l2.393-3.411 2.391-3.41a.716.59 0 0 0-.62-.884h-9.568zM1.5 15.5c-.277 0-.5.223-.5.5v2c0 .277.223.5.5.5h6c.277 0 .5-.223.5-.5v-2c0-.277-.223-.5-.5-.5h-6z"/><rect style="fill:#d8564d" width="3" height="7" x="4" y="-8" rx=".5" ry=".5" transform="rotate(90)"/><rect style="fill:#d8564d" width="3" height="7" x="15" y="-8" rx=".5" ry=".5" transform="rotate(90)"/><path style="fill:#d8564d" d="M10.716 4a.716.59 0 0 0-.62.884l2.393 3.41 2.391 3.41a.716.59 0 0 0 .587.295.716.59 0 0 0 .654-.294l2.391-3.41 2.392-3.41a.716.59 0 0 0-.62-.885h-9.568z"/><path style="opacity:.2;fill:#f4f4f7" d="M1.5 4c-.277 0-.5.223-.5.5V5c0-.277.223-.5.5-.5h6c.277 0 .5.223.5.5v-.5c0-.277-.223-.5-.5-.5h-6zm9.216 0a.716.59 0 0 0-.648.84.716.59 0 0 1 .648-.34h9.568a.716.59 0 0 1 .648.34.716.59 0 0 0-.648-.84h-9.568zM1.5 15c-.277 0-.5.223-.5.5v.5c0-.277.223-.5.5-.5h6c.277 0 .5.223.5.5v-.5c0-.277-.223-.5-.5-.5h-6z"/></svg>
